X:31
T:Blue Bossa
C:Jazz Standard
N:TablEdited by Kim Davis
L:1/8
Q:1/4=120
M:4/4
K:Eb
z8 | z8 | g3f ed2c | z4 zB2A | z4 zg2f | z8 | f3e dc2B | z4 zA2G | z4 zf2e | z8 | 
e3d cB2A | z4 z_G2G | z3F B3A | A8 | [A2F2] [GE][B4F4][AF] | [A2F2] [GF][B4F4][AE] | 
[G8D8] | z6 G2 | g4 ze =Bc | z4 zB GA | z4 zG =EF | z8 | f4 zd =AB | z4 zA _G=G | 
z4 zF DE | z8 | e4 zc GA | z4 z_G =EF | z4 zE C_D | z8 | G6 FB | z4 zG FG | z4 zG FG | 
z8 | z8 | z8 | 


